X: 4
T: Heaton Chapel
R: reel
M: 4/4
L: 1/8
K: Edor
E2B2 BAFA|BABc dedB|D2A2 AGFG|AdAB FEDF|
E2B2 BAFA|BABc dedB|ABde fedf|edBA G2FD|
E2B2 BAFA|BABc dedB|D(3DDD A(3DDD|AdAB FEDF|
E2B2 BAFA|BABc dedB|ABde fedf|edBA Beef||
g2e2 edBA|B(3eee edBe|dBAF AFD2 | (3FED FAdA BA|
g2e2 edBA|B(3eee edBe|dF F2 DFAB|dBAF BEE2|
g2e2 edBA|B(3eee edBe|dBAF AFD2 | (3FED FAdA BA|
e3f gbeg | f2ed dBAF | BABc dfed | dBAF G2FD ||


Tune 572	Setting 572

